app/component-library/components/Icons/Icon/assets/money.svg

<svg width="24" height="24" viewBox="0 0 24 24" fill="none" xmlns="http://www.w3.org/2000/svg">
<path d="M19.4507 6.63999C19.0207 4.46999 17.4107 3.51999 15.1707 3.51999H6.39072C3.75072 3.51999 1.99072 4.83999 1.99072 7.91999V13.07C1.99072 15.29 2.90072 16.59 4.40072 17.15C4.62072 17.23 4.86072 17.3 5.11072 17.34C5.51072 17.43 5.94072 17.47 6.39072 17.47H15.1807C17.8207 17.47 19.5807 16.15 19.5807 13.07V7.91999C19.5807 7.44999 19.5407 7.02999 19.4507 6.63999ZM5.81072 12C5.81072 12.41 5.47072 12.75 5.06072 12.75C4.65072 12.75 4.31072 12.41 4.31072 12V8.99999C4.31072 8.58999 4.65072 8.24999 5.06072 8.24999C5.47072 8.24999 5.81072 8.58999 5.81072 8.99999V12ZM10.7807 13.14C9.32072 13.14 8.14072 11.96 8.14072 10.5C8.14072 9.03999 9.32072 7.85999 10.7807 7.85999C12.2407 7.85999 13.4207 9.03999 13.4207 10.5C13.4207 11.96 12.2407 13.14 10.7807 13.14ZM17.2407 12C17.2407 12.41 16.9007 12.75 16.4907 12.75C16.0807 12.75 15.7407 12.41 15.7407 12V8.99999C15.7407 8.58999 16.0807 8.24999 16.4907 8.24999C16.9007 8.24999 17.2407 8.58999 17.2407 8.99999V12Z" fill="currentColor"/>
<path d="M22.5805 10.9198V16.0698C22.5805 19.1498 20.8205 20.4798 18.1705 20.4798H9.39049C8.64049 20.4798 7.97049 20.3698 7.39049 20.1498C6.92049 19.9798 6.51049 19.7298 6.18049 19.4098C6.00049 19.2398 6.14049 18.9698 6.39049 18.9698H15.1705C18.8705 18.9698 21.0705 16.7698 21.0705 13.0798V7.91978C21.0705 7.67978 21.3405 7.52978 21.5105 7.70978C22.1905 8.42978 22.5805 9.47978 22.5805 10.9198Z" fill="currentColor"/>
</svg>

<svg xmlns="http://www.w3.org/2000/svg" width="24" height="24" viewBox="0 0 24 24" fill="none"><path d="M19.45 6.64c-.43-2.17-2.04-3.12-4.28-3.12H6.39c-2.64 0-4.4 1.32-4.4 4.4v5.15c0 2.22.91 3.52 2.41 4.08.22.08.46.15.71.19.4.09.83.13 1.28.13h8.79c2.64 0 4.4-1.32 4.4-4.4V7.92c0-.47-.04-.89-.13-1.28zM5.81 12c0 .41-.34.75-.75.75s-.75-.34-.75-.75V9c0-.41.34-.75.75-.75s.75.34.75.75v3zm4.97 1.14c-1.46 0-2.64-1.18-2.64-2.64 0-1.46 1.18-2.64 2.64-2.64 1.46 0 2.64 1.18 2.64 2.64 0 1.46-1.18 2.64-2.64 2.64zM17.24 12c0 .41-.34.75-.75.75s-.75-.34-.75-.75V9c0-.41.34-.75.75-.75s.75.34.75.75v3z" fill="currentColor"/><path d="M22.58 10.92v5.15c0 3.08-1.76 4.41-4.41 4.41H9.39c-.75 0-1.42-.11-2-.33-.47-.17-.88-.42-1.21-.74-.18-.17-.04-.44.21-.44h8.78c3.7 0 5.9-2.2 5.9-5.89V7.92c0-.24.27-.39.44-.21.68.72 1.07 1.77 1.07 3.21z" fill="currentColor"/></svg>
